packages/core/src/svgs/tokens/mono/JUNGLE4EOS.svg

<svg width="24" height="24" viewBox="0 0 24 24" fill="none" xmlns="http://www.w3.org/2000/svg">
<path d="M10.2132 15.7955C9.73772 15.7512 9.26661 15.7689 8.83105 15.84C9.27994 16 9.8266 16.1823 10.4044 16.4046L10.2132 15.7955Z" fill="white"/>
<path d="M9.81756 14.5289C9.302 14.4934 8.79533 14.5245 8.32867 14.6178L8.32422 14.6267C8.80422 14.7734 9.3909 14.9378 10.0087 15.1467L9.81756 14.5289Z" fill="white"/>
<path d="M9.43554 13.2889C9.32443 13.2845 9.21332 13.28 9.1022 13.28L8.84888 13.7155C9.1022 13.7823 9.36443 13.8534 9.63114 13.9289L9.43554 13.2889Z" fill="white"/>
<path d="M12.3728 17.6623C11.9773 17.4445 11.5596 17.2889 11.1328 17.1912L11.3773 17.9778C11.5862 18.08 11.7951 18.1867 11.9996 18.3023H13.2839C13.0039 18.0578 12.7018 17.84 12.3728 17.6623Z" fill="white"/>
<path d="M9.12877 12.3022L9.05766 12.0755C8.54209 12.0488 8.02654 12.0888 7.55099 12.1822L7.51099 12.36C7.93765 12.4488 8.42209 12.5422 8.92432 12.6622L9.12877 12.3022Z" fill="white"/>
<path d="M8.51538 8.41333C9.15538 8.52444 9.76424 8.66222 10.2799 8.77333C10.4221 9.03111 10.5642 9.29333 10.7021 9.5555L10.8176 9.35111C10.711 9.16 10.5999 8.97333 10.4887 8.78666C10.5199 7.92888 10.4799 6.82221 10.4265 5.69775L9.99986 6.31109C10.0842 7.22665 10.2531 8.08444 10.4754 8.75111C10.3021 8.46222 10.1242 8.17777 9.94211 7.89333C9.94649 7.46665 9.93311 6.96887 9.90649 6.43998L9.63099 6.82665C9.71536 7.21776 9.82211 7.58221 9.93761 7.89333C9.89311 7.82665 9.85311 7.75554 9.80874 7.68888C9.71099 7.53776 9.60874 7.38665 9.5065 7.23999C9.50205 7.17332 9.49316 7.10221 9.48872 7.03554L9.43539 7.1111C9.44872 7.13776 9.45761 7.16444 9.47095 7.1911C9.45761 7.16887 9.43984 7.14665 9.4265 7.12444L9.33761 7.25332C9.35984 7.25776 9.38205 7.26665 9.39984 7.2711C9.48872 7.41333 9.57311 7.55554 9.65761 7.69776C9.51984 7.59999 9.36872 7.5111 9.20872 7.4311L8.99538 7.73333C9.2665 7.78221 9.52427 7.8311 9.75986 7.8711C9.89761 8.09777 10.031 8.32888 10.1599 8.56444C9.79099 8.29777 9.3465 8.07554 8.86205 7.91999L8.51538 8.41333Z" fill="white"/>
<path d="M8.72883 9.45771C9.35994 9.58219 9.96885 9.73331 10.52 9.87544L10.68 9.59544C10.0711 9.15993 9.3066 8.82216 8.48438 8.67993L8.72883 9.45771Z" fill="white"/>
<path d="M9.76396 11.0535C9.57734 11.0046 9.38177 10.969 9.19067 10.9379L9.43511 11.7156C9.444 11.7156 9.45289 11.7201 9.45734 11.7201L9.83509 11.0667C9.80847 11.0667 9.78622 11.0624 9.76396 11.0535Z" fill="white"/>
<path d="M8.55532 10.4666L8.32865 9.73336C8.26198 9.72886 8.19531 9.72449 8.12865 9.72449L7.97754 10.3645C8.16865 10.3955 8.3642 10.4311 8.55532 10.4666Z" fill="white"/>
<path d="M9.09768 9.84014C9.00879 9.82239 8.9199 9.80463 8.83545 9.79126L9.0799 10.5779C9.39101 10.6446 9.69318 10.7201 9.99105 10.8046L10.3154 10.2446C9.93318 10.0624 9.52434 9.92464 9.09768 9.84014Z" fill="white"/>
<path d="M8.90615 11.5955L8.68838 10.8933C8.40838 10.8755 8.12838 10.88 7.85281 10.9022L7.7417 11.3734C8.11504 11.4355 8.5106 11.5066 8.90615 11.5955Z" fill="white"/>
<path d="M7.7417 13.4399C7.93726 13.4888 8.15504 13.5421 8.3817 13.5999L8.5506 13.3065C8.2706 13.3333 7.99949 13.3776 7.7417 13.4399Z" fill="white"/>
<path d="M9.22186 6.60447L9.40854 6.34225C9.33742 5.80891 9.24409 5.22224 9.15076 4.63556C8.99076 3.68446 8.82631 2.72445 8.60408 2C8.5552 2.85334 8.59076 3.86223 8.75076 4.8089C8.85742 5.45779 9.02631 6.07557 9.22186 6.60447Z" fill="white"/>
<path d="M12.7864 18.7644C12.9998 18.8977 13.2086 19.0399 13.4086 19.1777L13.5375 18.7644H12.7864Z" fill="white"/>
<path d="M10.3953 4.94215C10.342 4.00437 10.2753 3.09325 10.173 2.37769C9.99526 3.31547 9.91089 4.46658 9.95526 5.56881L10.3953 4.94215Z" fill="white"/>
<path d="M11.9063 2.79991C11.8974 2.65325 11.884 2.51102 11.8708 2.37769C11.8219 2.59546 11.7729 2.82214 11.7285 3.05325L11.9063 2.79991Z" fill="white"/>
<path d="M11.1065 3.93329C11.0665 3.32439 11.0176 2.75994 10.951 2.2666C10.8131 2.95994 10.7154 3.74661 10.6665 4.55995L11.1065 3.93329Z" fill="white"/>
<path d="M9.51563 6.191L9.87123 5.68878C9.85786 5.44877 9.84011 5.20877 9.82673 4.96877C9.75123 3.90654 9.67123 2.83099 9.52897 2.02209C9.37786 2.93321 9.32008 4.04877 9.39563 5.10211C9.41786 5.47544 9.45786 5.84434 9.51563 6.191Z" fill="white"/>
<path d="M7.91541 8.60891C6.92429 8.52891 5.90206 8.70225 5.05762 9.04003C5.7954 9.09336 6.76874 9.14669 7.75097 9.29337L7.91541 8.60891Z" fill="white"/>
<path d="M14.2529 16.4623L15.1774 13.4889C15.2486 13.0045 15.3107 12.5289 15.3641 12.0755L15.0974 11.6134C14.8441 12.5067 14.6263 13.4889 14.4752 14.4578C14.3729 15.1423 14.2974 15.8178 14.2529 16.4623Z" fill="white"/>
<path d="M6.65762 3.75552C6.7065 3.82663 6.75984 3.9022 6.81317 3.9822C6.91984 4.13331 7.03095 4.29331 7.1465 4.45331C7.37762 4.77331 7.63096 5.11109 7.89317 5.43553C8.28874 5.93776 8.69763 6.41776 9.07985 6.81332L9.1954 6.64887C8.93763 6.13776 8.5954 5.59109 8.20429 5.09775C7.93762 4.76886 7.65762 4.45775 7.36873 4.19108C7.22651 4.05775 7.07984 3.93331 6.93762 3.82663C6.8665 3.77331 6.79539 3.71997 6.71984 3.67108C6.68428 3.64886 6.64873 3.62663 6.60873 3.60442C6.56873 3.58219 6.53316 3.55997 6.49316 3.54663C6.52428 3.57331 6.55095 3.61331 6.57761 3.64886C6.60428 3.68442 6.63095 3.71997 6.65762 3.75552Z" fill="white"/>
<path d="M8.85771 7.11994L9.02214 6.88883C8.59548 6.59549 8.07548 6.36439 7.51547 6.25771C6.71547 6.09327 5.8488 6.17771 5.15991 6.43994C5.74658 6.50216 6.55547 6.5866 7.34659 6.75105C7.87548 6.85328 8.39548 6.99105 8.85771 7.11994Z" fill="white"/>
<path d="M8.48853 7.64436L8.77297 7.2399C8.43076 7.11102 8.06186 7.01768 7.67519 6.98213C6.79519 6.8799 5.86185 7.04879 5.11963 7.37324C5.76852 7.39545 6.65296 7.40879 7.52408 7.51102C7.85297 7.54213 8.17742 7.59102 8.48853 7.64436Z" fill="white"/>
<path d="M12.0844 8.08888C12.1155 9.68 12.2355 11.4889 12.4889 12.7378C12.3866 12.4934 12.28 12.2489 12.1732 12.0089C12.0711 11.7823 11.9644 11.5555 11.8577 11.3334C11.9422 10.4489 11.9822 9.36889 12 8.23111L11.4755 9.15555C11.5555 9.92888 11.6755 10.6489 11.8266 11.2623C11.6311 10.8534 11.4266 10.4534 11.2132 10.0578C11.2177 10.0578 11.2266 10.0623 11.2311 10.0623C11.2222 10.0534 11.2089 10.04 11.1955 10.0311C11.1955 10.0311 11.1955 10.0266 11.1911 10.0266C11.2 9.88888 11.2044 9.75113 11.2132 9.6045L11.0977 9.8045C11.1066 9.8355 11.1155 9.86663 11.12 9.89338C11.1066 9.87113 11.0932 9.84888 11.0844 9.82663L10.9555 10.0489C11.1022 10.3378 11.2444 10.6266 11.3866 10.92C11.1822 10.7555 10.9555 10.6 10.7155 10.4623L10.4444 10.9378C10.84 11.0534 11.2132 11.1689 11.5555 11.2755C11.6977 11.5734 11.8355 11.8755 11.9644 12.1823C11.9732 12.2 11.9777 12.2134 11.9866 12.2311C11.5155 11.8089 10.9289 11.4578 10.2844 11.2223L9.91998 11.8578C10.7244 12.0845 11.4977 12.3645 12.1511 12.6045C12.2889 12.9289 12.4222 13.2534 12.5511 13.5866C11.9822 13.0266 11.2222 12.56 10.3866 12.3155C10.1777 12.2534 9.96435 12.2 9.7466 12.1645L9.6311 12.3689L9.79548 12.9023C9.89773 12.9334 9.99998 12.96 10.1022 12.9911C11.0444 13.2711 11.9511 13.6578 12.7022 13.9689C12.7732 14.1555 12.84 14.3423 12.9066 14.5289C12.96 14.68 13.0132 14.8312 13.0622 14.9823C12.52 14.3867 11.7822 13.88 10.9644 13.6C10.6311 13.48 10.2844 13.4 9.93773 13.3466L10.1732 14.1023C10.3377 14.1555 10.4977 14.2089 10.6622 14.2712C11.1866 14.4534 11.6977 14.6712 12.1777 14.8889C12.5422 15.0578 12.8844 15.2223 13.2 15.3778C13.3155 15.7289 13.4266 16.08 13.5332 16.4355C13.0177 15.7955 12.3022 15.2445 11.4932 14.92C11.12 14.7645 10.7244 14.6578 10.3289 14.5955L10.56 15.3467C10.76 15.4223 10.9644 15.5023 11.1644 15.5867C11.6755 15.7955 12.1732 16.0355 12.64 16.2845C12.9955 16.4755 13.3332 16.6623 13.64 16.8355C13.6532 16.8889 13.6711 16.9423 13.6844 16.9955C13.7511 17.2267 13.8089 17.4623 13.8711 17.6978L14.0044 17.2667C13.9689 17.1289 13.9378 16.9955 13.9023 16.8578V16.8534C14.1378 15.7778 14.3466 14.3867 14.5244 12.9823C14.6044 12.3155 14.6799 11.6445 14.7421 11.0045L14.4266 10.4534C14.2311 11.2711 14.0711 12.1466 13.9644 13.0089C13.8044 14.2934 13.7644 15.5512 13.8266 16.5867C13.7155 16.1867 13.5955 15.7867 13.4711 15.3955C13.6711 14.3245 13.8311 12.9378 13.96 11.5423C14.0089 10.9823 14.0578 10.4223 14.0978 9.88L13.7422 9.25778C13.5911 10.0134 13.4755 10.8134 13.4044 11.6C13.2889 12.8755 13.2889 14.12 13.3911 15.1378C13.3066 14.8845 13.2222 14.6312 13.1332 14.3778C13.0844 14.2445 13.0355 14.1155 12.9866 13.9823C13.1466 12.9111 13.2622 11.5378 13.3511 10.1466C13.3777 9.66225 13.4044 9.17777 13.4266 8.70222L13.0355 8.02222C12.9155 8.73777 12.8311 9.48889 12.7866 10.2266C12.7111 11.4978 12.7555 12.7289 12.8932 13.7334C12.7911 13.4711 12.6889 13.2134 12.5822 12.9555C12.6932 11.5734 12.7732 9.40889 12.76 7.62665C12.76 7.59999 12.76 7.56888 12.76 7.54222L12.5866 7.23999L12.0844 8.08888Z" fill="white"/>
<path d="M10.5728 17.6089C10.6485 17.6445 10.7285 17.68 10.8085 17.7111L10.6173 17.0934C10.1639 17.0311 9.71507 17.0311 9.30176 17.0845C9.6707 17.2355 10.1062 17.4089 10.5728 17.6089Z" fill="white"/>
<path d="M11.9597 16.2711C11.5641 16.08 11.1464 15.9511 10.7197 15.8711L10.9552 16.6266C11.173 16.72 11.3952 16.8177 11.613 16.9245C12.1064 17.16 12.5952 17.4266 13.0397 17.6977C13.2797 17.8445 13.5109 17.9911 13.7286 18.1289L13.8309 17.7955C13.3597 17.1689 12.7064 16.6177 11.9597 16.2711Z" fill="white"/>
<path d="M12.3331 6.72444V3.71997C12.1776 4.79553 12.0887 5.98221 12.0798 7.16888L12.3331 6.72444Z" fill="white"/>
<path d="M7.51582 10.2934L7.64915 9.72449C6.99138 9.75111 6.35137 9.87549 5.78247 10.0755C6.28026 10.1422 6.88026 10.2045 7.51582 10.2934Z" fill="white"/>
<path d="M6.47998 11.1645C6.72442 11.2045 6.99553 11.2488 7.28442 11.2933L7.36442 10.96C7.05331 11.0088 6.75553 11.0756 6.47998 11.1645Z" fill="white"/>
<path d="M5.29761 8.1023C5.99984 8.14674 6.95095 8.1823 7.89317 8.32008C7.92873 8.32453 7.96873 8.32897 8.00428 8.33786L8.38651 7.80008C8.28429 7.77785 8.17762 7.76008 8.0754 7.74674C7.12428 7.60896 6.1065 7.76896 5.29761 8.1023Z" fill="white"/>
<path d="M10.6402 6.35556C10.6713 7.34667 10.7779 8.30668 10.9468 9.1378L11.2402 8.63113C11.2446 7.87113 11.2313 7.04001 11.2091 6.20889C11.1957 5.69778 11.1734 5.18223 11.1513 4.68445L10.6357 5.41334C10.6313 5.72889 10.6313 6.04 10.6402 6.35556Z" fill="white"/>
<path d="M11.3687 7.04444C11.3687 7.47999 11.382 7.91554 11.4087 8.33777L12.013 7.28444C12.013 7.15554 12.013 7.0311 12.013 6.90221C12.013 5.7422 11.9998 4.56886 11.9509 3.54663L11.5598 4.09775C11.4398 5.04443 11.3687 6.05332 11.3687 7.04444Z" fill="white"/>
<path d="M11.1378 18.7644H6.71997C6.83997 18.8444 6.9822 18.9377 7.1422 19.0444L12.1422 21.9999L11.1378 18.7644Z" fill="white"/>
<path d="M16.9465 9.36438L16.031 12.3022L18.7554 17.0355L16.9465 9.36438Z" fill="white"/>
<path d="M12.8269 6.72454L15.7157 11.7512L16.7202 8.52454L12.8269 3.00452V6.72454Z" fill="white"/>
<path d="M14.022 18.7644L13.0176 21.9999L18.4931 18.7644H14.022Z" fill="white"/>
<path d="M15.8446 12.9066L14.1689 18.3023H18.9423L15.8446 12.9066Z" fill="white"/>
</svg>

<svg xmlns="http://www.w3.org/2000/svg" width="24" height="24" fill="none" viewBox="0 0 24 24">
    <path fill="#fff" d="M10.213 15.796a5.5 5.5 0 0 0-1.382.044c.449.16.996.342 1.573.565zm-.395-1.267a5.7 5.7 0 0 0-1.49.089l-.004.009c.48.146 1.067.31 1.685.52zm-.382-1.24q-.168-.008-.334-.009l-.253.436a45 45 0 0 1 .782.213zm2.937 4.373a4.8 4.8 0 0 0-1.24-.47l.244.786q.315.152.623.324h1.284a5 5 0 0 0-.911-.64m-3.244-5.36-.071-.226a6.2 6.2 0 0 0-1.507.106l-.04.178c.427.089.911.182 1.413.302zm-.614-3.889c.64.111 1.25.25 1.765.36q.214.388.422.783l.116-.205a23 23 0 0 0-.33-.564c.032-.858-.008-1.965-.061-3.09L10 6.312c.084.916.253 1.773.475 2.44a35 35 0 0 0-.533-.858c.004-.426-.009-.924-.036-1.453l-.275.387c.084.39.191.755.307 1.066-.045-.066-.085-.137-.13-.204-.097-.151-.2-.302-.301-.449-.005-.067-.014-.138-.018-.204l-.054.075c.014.027.023.053.036.08-.013-.022-.031-.044-.044-.067l-.09.13c.023.004.045.013.063.017q.132.213.258.427a3.4 3.4 0 0 0-.45-.267l-.213.302c.272.05.53.098.765.138q.207.34.4.693a4.7 4.7 0 0 0-1.298-.644z"/>
    <path fill="#fff" d="M8.729 9.458c.63.124 1.24.275 1.791.417l.16-.28a5.4 5.4 0 0 0-2.196-.915zm1.035 1.596a6 6 0 0 0-.573-.116l.244.778c.009 0 .018.004.022.004l.378-.653a.2.2 0 0 1-.071-.014m-1.209-.586-.226-.734a3 3 0 0 0-.2-.009l-.151.64c.19.031.386.067.577.103m.543-.627q-.135-.027-.263-.049l.245.787q.465.1.911.227l.324-.56a5.2 5.2 0 0 0-1.217-.405m-.192 1.756-.218-.703a6 6 0 0 0-.835.01l-.111.47c.373.063.769.134 1.164.223M7.742 13.44c.195.049.413.102.64.16l.169-.293q-.421.039-.81.133m1.481-6.836.187-.262a77 77 0 0 0-.258-1.706c-.16-.952-.325-1.912-.547-2.636-.049.853-.013 1.862.147 2.809.106.649.275 1.267.47 1.795m3.565 12.16c.214.134.423.276.623.414l.128-.414zM10.395 4.942c-.053-.938-.12-1.849-.222-2.564a14.7 14.7 0 0 0-.218 3.19zM11.906 2.8a11 11 0 0 0-.035-.422q-.075.327-.143.675zm-.799 1.133a25 25 0 0 0-.156-1.666c-.138.693-.236 1.48-.285 2.293zM9.516 6.191l.355-.502-.044-.72C9.75 3.907 9.67 2.83 9.529 2.022a13.7 13.7 0 0 0-.133 3.08c.022.373.062.742.12 1.089M7.915 8.609a6.5 6.5 0 0 0-2.857.431c.737.053 1.71.107 2.693.253zm6.338 7.853.924-2.973c.072-.485.134-.96.187-1.414l-.267-.462a24 24 0 0 0-.622 2.845c-.102.684-.178 1.36-.222 2.004M6.658 3.756q.074.105.155.226c.107.151.218.311.333.471.232.32.485.658.747.983.396.502.805.982 1.187 1.377l.115-.164a9.3 9.3 0 0 0-.99-1.551 9 9 0 0 0-.836-.907 5 5 0 0 0-.431-.364q-.106-.082-.218-.156l-.111-.067c-.04-.022-.076-.044-.116-.057.031.026.058.066.085.102zm2.2 3.364.164-.231a4 4 0 0 0-1.507-.631 4.37 4.37 0 0 0-2.355.182c.587.062 1.395.147 2.187.311.528.102 1.048.24 1.51.369m-.368.524.284-.404a4.2 4.2 0 0 0-1.098-.258 5.1 5.1 0 0 0-2.555.391c.649.022 1.533.036 2.404.138.329.031.653.08.965.133m3.595.445c.032 1.591.152 3.4.405 4.649a31 31 0 0 0-.631-1.404c.084-.885.124-1.965.142-3.103l-.524.925c.08.773.2 1.493.35 2.106q-.293-.612-.613-1.204c.005 0 .014.004.018.004-.009-.009-.022-.022-.036-.03 0 0 0-.005-.004-.005.009-.138.013-.276.022-.422l-.115.2a1 1 0 0 1 .022.088q-.021-.033-.036-.066l-.128.222q.218.433.43.871a5 5 0 0 0-.67-.458l-.272.476c.396.115.77.23 1.111.337q.215.447.41.907l.022.05a5.3 5.3 0 0 0-1.703-1.01l-.364.636c.804.226 1.578.506 2.231.746q.207.486.4.983a5.2 5.2 0 0 0-2.164-1.271 5 5 0 0 0-.64-.152l-.116.205.164.533c.103.031.205.058.307.09.942.28 1.85.666 2.6.977a29 29 0 0 1 .36 1.013 5.14 5.14 0 0 0-2.098-1.382c-.333-.12-.68-.2-1.026-.253l.235.755c.165.053.325.107.49.17.524.181 1.035.4 1.515.617q.547.254 1.022.489.174.524.333 1.058a5.1 5.1 0 0 0-2.04-1.516 5 5 0 0 0-1.164-.325l.231.752c.2.075.404.155.604.24.511.209 1.01.448 1.476.698.355.19.693.377 1 .55.013.054.031.107.044.16.067.232.125.467.187.703l.133-.431c-.035-.138-.066-.271-.102-.41v-.004c.236-1.075.445-2.466.622-3.87.08-.668.156-1.338.218-1.979l-.315-.55a24 24 0 0 0-.463 2.555c-.16 1.284-.2 2.542-.137 3.578-.111-.4-.232-.8-.356-1.191.2-1.072.36-2.458.489-3.854.049-.56.098-1.12.138-1.662l-.356-.622a22 22 0 0 0-.338 2.342c-.115 1.276-.115 2.52-.013 3.538q-.125-.38-.258-.76l-.146-.396c.16-1.07.275-2.444.364-3.835.027-.485.053-.97.076-1.445l-.391-.68c-.12.716-.205 1.467-.25 2.205-.075 1.27-.03 2.502.107 3.506q-.152-.392-.31-.777c.11-1.383.19-3.547.177-5.33v-.084l-.173-.302zm-1.511 9.52q.113.054.236.102l-.192-.618a5 5 0 0 0-1.315-.009c.369.151.804.325 1.27.525"/>
    <path fill="#fff" d="M11.96 16.271a5 5 0 0 0-1.24-.4l.235.756q.329.138.658.297c.493.236.982.503 1.427.774.24.146.47.293.689.43l.102-.332a5.04 5.04 0 0 0-1.871-1.525m.373-9.547V3.72a26 26 0 0 0-.253 3.449zm-4.817 3.569.133-.569a6.5 6.5 0 0 0-1.867.351c.498.067 1.098.13 1.734.218m-1.036.872c.244.04.516.084.804.128l.08-.333a6 6 0 0 0-.884.204M5.298 8.102c.702.045 1.653.08 2.595.218.036.005.076.009.111.018l.383-.538a4 4 0 0 0-.312-.053 5.5 5.5 0 0 0-2.777.355m5.342-1.746c.031.99.138 1.95.307 2.782l.293-.507a76 76 0 0 0-.089-3.947l-.515.73c-.005.315-.005.626.004.942m.729.688c0 .436.013.872.04 1.294l.604-1.054v-.382c0-1.16-.013-2.333-.062-3.355l-.391.55c-.12.947-.191 1.956-.191 2.947m-.231 11.72H6.72l.422.28 5 2.956zm5.809-9.4-.916 2.938 2.724 4.733zm-4.12-2.639 2.889 5.026 1.004-3.226-3.893-5.52zm1.195 12.039L13.018 22l5.475-3.236zm1.823-5.857-1.676 5.395h4.773z"/>
</svg>
